X: 1683
T: Saçlarına Bağlanalı Ey Peri
C: Rahmi Bey
O: Turkey
F: http://compmusic.upf.edu/node/140
N: nihavent--sarki--curcuna--saclarina_baglanali--rahmi_bey
N: makam= nihavent
N: form= sarki
N: usul= curcuna = 10/8
M: 10/8
L: 1/16
K: C _B _e  
Q: 1/4=168
%%MIDI tuningsystem comma53
e8-e2e4A2 B2c2  | d8-d2d2 c2B2 A2G2  | \
w:  ARANAĞME  |   | 
e8-e2e4A2 B2c2  | d4 e2d2 c2B2 c2d4z2  | 
w:   |   | 
f8-f2g2 f2e2 d2c2  | e8-e2d2 c2B2 A2G2  | \
w:   |   | 
A2B2 c2B2 A2B2 A2G4^F2  | 
w:   | 
G18z2  | e8-e2e4A2 B2c2  | d8-d2d2 c2B2 A2G2  | \
w:   |  ARANAĞME  |   | 
e8-e2e4A2 B2c2  | 
w:   | 
d4 e2d2 c2B2 c2d4z2  | f8-f2g2 f2e2 d2c2  | \
w:   |   | 
e8-e2d2 c2B2 A2G2  | 
w:   | 
A2B2 c2B2 A2B2 A2G4^F2  | G18z2  | G6d4d2 g2d4c2  | \
w:   |   |  Saç la rı *  na   | 
c6d2 e2d2 c2B6  | 
w:  bağ la *  na *  lı   | 
c6d14  | d2e2 ^f2g2 a2f2 e2d2 g4  | ^f4 e2e2 d2d8z2  | \
w:  ey   |   |  ey  *  pe *  ri    | 
d4 e2d2 c2B2 A2G4z2  | 
w:  SAZ  | 
G6d4d2 g2d4c2  | c6d2 e2d2 c2B6  | c6d14  | \
w:  Saç la rı *  na   |  bağ la *  na *  lı   |  ey   | 
d2e2 ^f2g2 a2f2 e2d2 g4  | 
w:   | 
^f4 e2e2 d2d8z2  | d4 e2d2 c2B2 c2d4z2  | \
w:  ey  *  pe *  ri    |  SAZ  | 
d4 _1/4e2f4f4g4f2  | f4 e2e4e2 d2d4c2  | 
w:  Ol *  du  dil  en  |  vâ *  i  cü *  nûn   | 
d4 c2c2 B2A2 B2c4B2  | A2B2 c2d2 e2d2 c2B2 A2G2  | \
w:  meş *  he *  ri    |   | 
G6A4B4A4G2  | 
w:  Ol du  dil  en  | 
G6e4d2 ^c2d4z2  | B4 A2G2 ^F2G8-G2  | \
w:  vâ i  cü *  nûn   |  meş *  he *  ri    | 
G4 b2a2 g2a2 f2g4z2  | f6g4g4g6  | 
w:  SAZ  |  Has ret_ i  çeşm_  | 
f4 g2a4b2 a2a4g2  | g4 f2g2 a2g2 a2f6  | \
w:  i  *  si ye *  hin  |  le  *  gö *  züm    | 
g2a2 f4 _1/4e2f2 g2e2 d2c2  | 
w:   | 
d4 _1/4e2f4g4a4g2  | b4 a2a2 g2g2 ^f2e2 d2e2  | \
w:  Has *  ret_ i  çeşm_  |  i  *  si *  ye *  hin  | 
^f4 e2e2 d2d8z2  | 
w:  le  *  gö *  züm    | 
d4 e2d2 c2B2 c2d4z2  | d4 _1/4e2f4f4g4f2  | \
w:  SAZ  |  Ol *  du  dil  en  | 
f4 e2e4e2 d2d4c2  | 
w:  vâ *  i  cü *  nûn   | 
d4 c2c2 B2A2 B2c4B2  | A2B2 c2d2 e2d2 c2B2 A2G2  | \
w:  meş *  he *  ri    |   | 
G6A4B4A4G2  | 
w:  Ol du  dil  en  | 
G6e4d2 ^c2d4z2  | B4 A2G2 ^F2G8-G2  | |


